build/img/sprite/telegram.svg

<svg width="24" height="24" viewBox="0 0 24 24" fill="none" xmlns="http://www.w3.org/2000/svg">
<path fill-rule="evenodd" clip-rule="evenodd" d="M12 22C17.5228 22 22 17.5228 22 12C22 6.47715 17.5228 2 12 2C6.47715 2 2 6.47715 2 12C2 17.5228 6.47715 22 12 22ZM12.3583 9.38244C11.3857 9.787 9.44177 10.6243 6.52657 11.8944C6.05318 12.0827 5.80521 12.2669 5.78263 12.4469C5.74448 12.7513 6.12559 12.8711 6.64455 13.0343C6.71514 13.0565 6.78829 13.0795 6.86327 13.1038C7.37386 13.2698 8.06068 13.464 8.41773 13.4717C8.74161 13.4787 9.1031 13.3452 9.50219 13.0711C12.226 11.2325 13.632 10.3032 13.7202 10.2831C13.7825 10.269 13.8688 10.2512 13.9273 10.3032C13.9858 10.3552 13.98 10.4536 13.9738 10.48C13.9361 10.641 12.4401 12.0317 11.6659 12.7515C11.4246 12.9759 11.2534 13.135 11.2184 13.1714C11.14 13.2528 11.0601 13.3298 10.9833 13.4038C10.509 13.8611 10.1532 14.204 11.003 14.764C11.4114 15.0331 11.7381 15.2556 12.0641 15.4776C12.4201 15.7201 12.7752 15.9619 13.2347 16.2631C13.3517 16.3398 13.4635 16.4195 13.5724 16.4971C13.9867 16.7925 14.3589 17.0579 14.8188 17.0155C15.086 16.991 15.362 16.7397 15.5022 15.9903C15.8335 14.2193 16.4847 10.382 16.6352 8.80081C16.6484 8.66228 16.6318 8.48498 16.6185 8.40715C16.6051 8.32932 16.5773 8.21842 16.4761 8.13633C16.3563 8.03911 16.1714 8.01861 16.0886 8.02007C15.7125 8.0267 15.1355 8.22735 12.3583 9.38244Z" fill="white"/>
</svg>

<svg width="24" height="24" fill="none" xmlns="http://www.w3.org/2000/svg"><path fill-rule="evenodd" clip-rule="evenodd" d="M12 22c5.523 0 10-4.477 10-10S17.523 2 12 2 2 6.477 2 12s4.477 10 10 10Zm.358-12.618c-.972.405-2.916 1.242-5.831 2.512-.474.189-.722.373-.744.553-.039.304.343.424.862.587l.218.07c.51.166 1.198.36 1.555.368.324.007.685-.127 1.084-.4 2.724-1.84 4.13-2.769 4.218-2.789.063-.014.149-.032.207.02.059.052.053.15.047.177-.038.161-1.534 1.552-2.308 2.271-.241.225-.413.384-.448.42a8.802 8.802 0 0 1-.235.233c-.474.457-.83.8.02 1.36.408.27.735.492 1.061.714.356.242.711.484 1.17.785.118.077.23.156.338.234.415.296.787.56 1.247.518.267-.024.543-.275.683-1.025.332-1.77.983-5.608 1.133-7.19a1.764 1.764 0 0 0-.017-.393.422.422 0 0 0-.142-.27c-.12-.098-.305-.118-.387-.117-.376.007-.953.207-3.73 1.362Z" fill="#fff"/></svg>
